build/assets/images/svg/icons/lk/personal_account/star.svg

<svg width="16" height="16" viewBox="0 0 16 16" fill="none" xmlns="http://www.w3.org/2000/svg">
<path d="M6.84595 2.30066C7.37767 1.45528 8.62232 1.45528 9.15404 2.30066L10.44 4.34516C10.627 4.6426 10.9242 4.85605 11.2682 4.94002L13.6326 5.51719C14.6102 5.75584 14.9948 6.92601 14.3458 7.68713L12.7762 9.52787C12.5478 9.79567 12.4343 10.141 12.4598 10.4904L12.6352 12.8916C12.7077 13.8845 11.7007 14.6077 10.7679 14.2327L8.51188 13.3258C8.18367 13.1939 7.81632 13.1939 7.48811 13.3258L5.23211 14.2327C4.29928 14.6077 3.29233 13.8845 3.36483 12.8916L3.54017 10.4904C3.56568 10.141 3.45216 9.79567 3.22381 9.52787L1.65419 7.68713C1.00517 6.92601 1.38979 5.75584 2.36743 5.51719L4.73178 4.94002C5.07576 4.85605 5.37296 4.6426 5.56004 4.34516L6.84595 2.30066Z" fill="#DDE1E6"/>
</svg>

<svg width="16" height="16" fill="none" xmlns="http://www.w3.org/2000/svg"><path d="M6.846 2.3a1.367 1.367 0 012.308 0l1.286 2.045c.187.298.484.511.828.595l2.365.577c.977.239 1.362 1.409.713 2.17l-1.57 1.84a1.333 1.333 0 00-.316.963l.175 2.402c.073.992-.934 1.716-1.867 1.34l-2.256-.906a1.374 1.374 0 00-1.024 0l-2.256.907c-.933.375-1.94-.349-1.867-1.341l.175-2.402a1.333 1.333 0 00-.316-.962l-1.57-1.84a1.338 1.338 0 01.713-2.17l2.365-.578c.344-.084.641-.297.828-.595l1.286-2.044z" fill="#DDE1E6"/></svg>
